resources/1compartment.svg

<svg viewBox="-72.0008 -68.6804 85.4391 154.11" xmlns="http://www.w3.org/2000/svg"><defs><font horiz-adv-x="0" id="cmr7"><font-face ascent="750" descent="250" font-family="cmr7"/><glyph d="M516 319c0 110-13 189-59 259-31 46-93 86-173 86C52 664 52 391 52 319S52-20 284-20s232 267 232 339zM284 8c-46 0-107 27-127 109-14 59-14 141-14 215 0 73 0 149 15 204 21 79 85 100 126 100 54 0 106-33 124-91 16-54 17-126 17-213 0-74 0-148-13-211C392 30 324 8 284 8z" glyph-name="zero" horiz-adv-x="569" unicode="0" vert-adv-y="569"/><glyph d="M335 636c0 27-2 28-30 28-64-63-155-64-196-64v-36c24 0 90 0 145 28V82c0-33 0-46-100-46h-38V0c18 1 141 4 178 4 31 0 157-3 179-4v36h-38c-100 0-100 13-100 46v554z" glyph-name="one" horiz-adv-x="569" unicode="1" vert-adv-y="569"/></font><font horiz-adv-x="0" id="cmr10"><font-face ascent="750" descent="250" font-family="cmr10"/><glyph d="M35 683v-31h24c77 0 79-11 79-47V78c0-36-2-47-79-47H35V0h366c168 0 306 148 306 336 0 190-135 347-306 347H35zM273 31c-47 0-49 7-49 40v541c0 33 2 40 49 40h100c62 0 131-22 182-93 43-59 52-145 52-223 0-111-19-171-55-220-20-27-77-85-178-85H273z" glyph-name="D" horiz-adv-x="763" unicode="D" vert-adv-y="763"/><glyph d="M621 585c14 37 41 66 109 67v31c-31-2-71-3-97-3-30 0-88 2-114 3v-31c52-1 73-27 73-50 0-8-3-14-5-20L404 100 213 605c-6 14-6 16-6 18 0 29 57 29 82 29v31c-36-3-105-3-143-3-48 0-91 2-127 3v-31c65 0 84 0 98-38L349 0c7-19 12-22 25-22 17 0 19 5 24 19l223 588z" glyph-name="V" horiz-adv-x="750" unicode="V" vert-adv-y="750"/><glyph d="M112 252c6 149 90 174 124 174 103 0 113-135 113-174H112zm-1-21h279c22 0 25 0 25 21 0 99-54 196-179 196-116 0-208-103-208-228C28 86 133-11 248-11c122 0 167 111 167 130 0 10-8 12-13 12-9 0-11-6-13-14C354 14 264 14 254 14c-50 0-90 30-113 67-30 48-30 114-30 150z" glyph-name="e" horiz-adv-x="444" unicode="e" vert-adv-y="444"/><glyph d="M222 172c-87 0-87 100-87 123 0 27 1 59 16 84 8 12 31 40 71 40 87 0 87-100 87-123 0-27-1-59-16-84-8-12-31-40-71-40zm-116-39c0 4 0 27 17 47 39-28 80-31 99-31 93 0 162 69 162 146 0 37-16 74-41 97 36 34 72 39 90 39 2 0 7 0 10-1-11-4-16-15-16-27 0-17 13-29 29-29 10 0 29 7 29 30 0 17-12 49-51 49-20 0-64-6-106-47-42 33-84 36-106 36-93 0-162-69-162-146 0-44 22-82 47-103-13-15-31-48-31-83 0-31 13-69 44-89C60 4 28-39 28-79c0-72 99-127 221-127 118 0 222 51 222 129 0 35-14 86-65 114-53 28-111 28-172 28-25 0-68 0-75 1-32 4-53 35-53 67zm144-316C149-183 80-132 80-79c0 46 38 83 82 86h59c86 0 198 0 198-86 0-54-71-104-169-104z" glyph-name="g" horiz-adv-x="500" unicode="g" vert-adv-y="500"/><glyph d="M177 442L37 431v-31c65 0 74-6 74-55V76c0-45-11-45-78-45V0c32 1 86 3 110 3 35 0 70-2 104-3v31c-66 0-70 5-70 44v367zm4 174c0 32-25 53-53 53-31 0-53-27-53-53 0-27 22-53 53-53 28 0 53 21 53 53z" glyph-name="i" horiz-adv-x="277" unicode="i" vert-adv-y="277"/><glyph d="M106 76c0-45-11-45-78-45V0c33 1 80 3 109 3 30 0 70-1 110-3v31c-67 0-78 0-78 45v103l64 55C310 128 352 72 352 54c0-19-17-23-36-23V0c28 1 87 3 108 3 29 0 58-1 87-3v31c-37 0-59 0-97 53L287 263c-1 2-6 8-6 11 0 4 71 64 81 72 63 51 105 53 126 54v31c-29-3-42-3-70-3-36 0-98 2-112 3v-31c19-1 29-12 29-25 0-20-14-32-22-39L172 214v480L28 683v-31c70 0 78-7 78-56V76z" glyph-name="k" horiz-adv-x="527" unicode="k" vert-adv-y="527"/><glyph d="M177 694L33 683v-31c70 0 78-7 78-56V76c0-45-11-45-78-45V0c33 1 86 3 111 3s74-2 111-3v31c-67 0-78 0-78 45v618z" glyph-name="l" horiz-adv-x="277" unicode="l" vert-adv-y="277"/><glyph d="M167 332v110L28 431v-31c70 0 78-7 78-56V76c0-45-11-45-78-45V0c39 1 86 3 114 3 40 0 87 0 127-3v31h-21c-74 0-76 11-76 47v154c0 99 42 188 118 188 7 0 9 0 11-1-3-1-23-13-23-39 0-28 21-43 43-43 18 0 43 12 43 44s-31 61-74 61c-73 0-109-67-123-110z" glyph-name="r" horiz-adv-x="391" unicode="r" vert-adv-y="391"/><glyph d="M391 79v-90L535 0v31c-70 0-78 7-78 56v355l-147-11v-31c70 0 78-7 78-56V166c0-87-48-155-121-155-84 0-88 47-88 99v332L32 431v-31c78 0 78-3 78-92V158c0-78 0-169 152-169 56 0 100 28 129 90z" glyph-name="u" horiz-adv-x="555" unicode="u" vert-adv-y="555"/><glyph d="M416 333c9 23 26 66 92 67v31c-23-2-52-3-75-3-24 0-70 2-87 3v-31c37-1 48-24 48-43 0-9-2-13-6-24L286 78 174 357c-6 13-6 15-6 17 0 26 39 26 57 26v31c-30-1-86-3-109-3-27 0-67 1-97 3v-31c63 0 67-6 80-37L243 8c6-14 8-19 21-19s17 9 21 19l131 325z" glyph-name="v" horiz-adv-x="527" unicode="v" vert-adv-y="527"/><glyph d="M415 336c26 63 77 64 93 64v31c-23-2-52-3-75-3-18 0-65 2-87 3v-31c31-1 47-18 47-43 0-10-1-12-6-24L286 87 175 356c-4 10-6 14-6 18 0 26 37 26 56 26v31c-26-1-92-3-109-3-27 0-67 1-97 3v-31c48 0 67 0 81-35L250 0c-5-13-19-46-25-59-22-55-50-124-114-124-5 0-28 0-47 18 31 4 39 26 39 42 0 26-19 42-42 42-20 0-42-13-42-43 0-45 42-81 92-81 63 0 104 57 128 114l176 427z" glyph-name="y" horiz-adv-x="527" unicode="y" vert-adv-y="527"/></font></defs><style>text.f0{font-family:cmr10;font-size:9.96264px}text.f1{font-family:cmr7;font-size:6.97385px}</style><g id="page1"><path d="M-71.8 57.082h85.038v-85.039H-71.8z" fill="none" stroke="#000" stroke-width=".4"/><text class="f0" transform="translate(-5.97 2.657)" x="-29.281" y="14.562">V</text><text class="f1" transform="translate(-5.97 2.657)" x="-21.809" y="16.056">1</text><path d="M-29.281-56.305v27.688" fill="none" stroke="#000" stroke-miterlimit="10.037" stroke-width=".4"/><path d="M-27.688-29.813c-.597.102-1.492 1.196-1.593 1.496-.098-.3-.996-1.394-1.594-1.496" fill="none" stroke="#000" stroke-linecap="round" stroke-linejoin="round" stroke-miterlimit="10.037" stroke-width=".32"/><text class="f0" transform="translate(-30.746 -76.324)" x="-29.281" y="14.562">D<tspan x="-21.671">r</tspan> <tspan x="-17.769">u</tspan> <tspan x="-12.234">g</tspan> <tspan x="-3.932">D</tspan> <tspan x="3.679">e</tspan> <tspan x="8.107">l</tspan> <tspan x="10.874">i</tspan> <tspan x="13.641">v</tspan> <tspan x="18.623">e</tspan> <tspan x="23.051">r</tspan> <tspan x="26.953">y</tspan></text><path d="M-29.281 81.844V57.28" fill="none" stroke="#000" stroke-miterlimit="10.037" stroke-width=".4"/><path d="M-29.281 85.43c.199-1.063.797-2.79 1.496-3.985h-2.992c.699 1.196 1.297 2.922 1.496 3.985"/><text class="f0" transform="translate(-17.219 59.505)" x="-29.281" y="14.562">k</text><text class="f1" transform="translate(-17.219 59.505)" x="-24.023" y="16.056">1<tspan x="-20.052">0</tspan></text></g></svg>

<?xml version='1.0' encoding='UTF-8'?>
<!-- This file was generated by dvisvgm 2.1.3 -->
<svg height='154.11pt' version='1.1' viewBox='-72.0008 -68.6804 85.4391 154.11' width='85.4391pt' xmlns='http://www.w3.org/2000/svg' xmlns:xlink='http://www.w3.org/1999/xlink'>
<defs>
<font horiz-adv-x='0' id='cmr7'>
<font-face ascent='750' descent='250' font-family='cmr7' units-per-em='1000'/>
<glyph d='M516 319C516 429 503 508 457 578C426 624 364 664 284 664C52 664 52 391 52 319S52 -20 284 -20S516 247 516 319ZM284 8C238 8 177 35 157 117C143 176 143 258 143 332C143 405 143 481 158 536C179 615 243 636 284 636C338 636 390 603 408 545C424 491 425 419 425 332C425 258 425 184 412 121C392 30 324 8 284 8Z' glyph-name='zero' horiz-adv-x='569' unicode='0' vert-adv-y='569'/>
<glyph d='M335 636C335 663 333 664 305 664C241 601 150 600 109 600V564C133 564 199 564 254 592V82C254 49 254 36 154 36H116V0C134 1 257 4 294 4C325 4 451 1 473 0V36H435C335 36 335 49 335 82V636Z' glyph-name='one' horiz-adv-x='569' unicode='1' vert-adv-y='569'/>
</font>
<font horiz-adv-x='0' id='cmr10'>
<font-face ascent='750' descent='250' font-family='cmr10' units-per-em='1000'/>
<glyph d='M35 683V652H59C136 652 138 641 138 605V78C138 42 136 31 59 31H35V0H401C569 0 707 148 707 336C707 526 572 683 401 683H35ZM273 31C226 31 224 38 224 71V612C224 645 226 652 273 652H373C435 652 504 630 555 559C598 500 607 414 607 336C607 225 588 165 552 116C532 89 475 31 374 31H273Z' glyph-name='D' horiz-adv-x='763' unicode='D' vert-adv-y='763'/>
<glyph d='M621 585C635 622 662 651 730 652V683C699 681 659 680 633 680C603 680 545 682 519 683V652C571 651 592 625 592 602C592 594 589 588 587 582L404 100L213 605C207 619 207 621 207 623C207 652 264 652 289 652V683C253 680 184 680 146 680C98 680 55 682 19 683V652C84 652 103 652 117 614L349 0C356 -19 361 -22 374 -22C391 -22 393 -17 398 -3L621 585Z' glyph-name='V' horiz-adv-x='750' unicode='V' vert-adv-y='750'/>
<glyph d='M112 252C118 401 202 426 236 426C339 426 349 291 349 252H112ZM111 231H390C412 231 415 231 415 252C415 351 361 448 236 448C120 448 28 345 28 220C28 86 133 -11 248 -11C370 -11 415 100 415 119C415 129 407 131 402 131C393 131 391 125 389 117C354 14 264 14 254 14C204 14 164 44 141 81C111 129 111 195 111 231Z' glyph-name='e' horiz-adv-x='444' unicode='e' vert-adv-y='444'/>
<glyph d='M222 172C135 172 135 272 135 295C135 322 136 354 151 379C159 391 182 419 222 419C309 419 309 319 309 296C309 269 308 237 293 212C285 200 262 172 222 172ZM106 133C106 137 106 160 123 180C162 152 203 149 222 149C315 149 384 218 384 295C384 332 368 369 343 392C379 426 415 431 433 431C435 431 440 431 443 430C432 426 427 415 427 403C427 386 440 374 456 374C466 374 485 381 485 404C485 421 473 453 434 453C414 453 370 447 328 406C286 439 244 442 222 442C129 442 60 373 60 296C60 252 82 214 107 193C94 178 76 145 76 110C76 79 89 41 120 21C60 4 28 -39 28 -79C28 -151 127 -206 249 -206C367 -206 471 -155 471 -77C471 -42 457 9 406 37C353 65 295 65 234 65C209 65 166 65 159 66C127 70 106 101 106 133ZM250 -183C149 -183 80 -132 80 -79C80 -33 118 4 162 7H221C307 7 419 7 419 -79C419 -133 348 -183 250 -183Z' glyph-name='g' horiz-adv-x='500' unicode='g' vert-adv-y='500'/>
<glyph d='M177 442L37 431V400C102 400 111 394 111 345V76C111 31 100 31 33 31V0C65 1 119 3 143 3C178 3 213 1 247 0V31C181 31 177 36 177 75V442ZM181 616C181 648 156 669 128 669C97 669 75 642 75 616C75 589 97 563 128 563C156 563 181 584 181 616Z' glyph-name='i' horiz-adv-x='277' unicode='i' vert-adv-y='277'/>
<glyph d='M106 76C106 31 95 31 28 31V0C61 1 108 3 137 3C167 3 207 2 247 0V31C180 31 169 31 169 76V179L233 234C310 128 352 72 352 54C352 35 335 31 316 31V0C344 1 403 3 424 3C453 3 482 2 511 0V31C474 31 452 31 414 84L287 263C286 265 281 271 281 274C281 278 352 338 362 346C425 397 467 399 488 400V431C459 428 446 428 418 428C382 428 320 430 306 431V400C325 399 335 388 335 375C335 355 321 343 313 336L172 214V694L28 683V652C98 652 106 645 106 596V76Z' glyph-name='k' horiz-adv-x='527' unicode='k' vert-adv-y='527'/>
<glyph d='M177 694L33 683V652C103 652 111 645 111 596V76C111 31 100 31 33 31V0C66 1 119 3 144 3S218 1 255 0V31C188 31 177 31 177 76V694Z' glyph-name='l' horiz-adv-x='277' unicode='l' vert-adv-y='277'/>
<glyph d='M167 332V442L28 431V400C98 400 106 393 106 344V76C106 31 95 31 28 31V0C67 1 114 3 142 3C182 3 229 3 269 0V31H248C174 31 172 42 172 78V232C172 331 214 420 290 420C297 420 299 420 301 419C298 418 278 406 278 380C278 352 299 337 321 337C339 337 364 349 364 381S333 442 290 442C217 442 181 375 167 332Z' glyph-name='r' horiz-adv-x='391' unicode='r' vert-adv-y='391'/>
<glyph d='M391 79V-11L535 0V31C465 31 457 38 457 87V442L310 431V400C380 400 388 393 388 344V166C388 79 340 11 267 11C183 11 179 58 179 110V442L32 431V400C110 400 110 397 110 308V158C110 80 110 -11 262 -11C318 -11 362 17 391 79Z' glyph-name='u' horiz-adv-x='555' unicode='u' vert-adv-y='555'/>
<glyph d='M416 333C425 356 442 399 508 400V431C485 429 456 428 433 428C409 428 363 430 346 431V400C383 399 394 376 394 357C394 348 392 344 388 333L286 78L174 357C168 370 168 372 168 374C168 400 207 400 225 400V431C195 430 139 428 116 428C89 428 49 429 19 431V400C82 400 86 394 99 363L243 8C249 -6 251 -11 264 -11S281 -2 285 8L416 333Z' glyph-name='v' horiz-adv-x='527' unicode='v' vert-adv-y='527'/>
<glyph d='M415 336C441 399 492 400 508 400V431C485 429 456 428 433 428C415 428 368 430 346 431V400C377 399 393 382 393 357C393 347 392 345 387 333L286 87L175 356C171 366 169 370 169 374C169 400 206 400 225 400V431C199 430 133 428 116 428C89 428 49 429 19 431V400C67 400 86 400 100 365L250 0C245 -13 231 -46 225 -59C203 -114 175 -183 111 -183C106 -183 83 -183 64 -165C95 -161 103 -139 103 -123C103 -97 84 -81 61 -81C41 -81 19 -94 19 -124C19 -169 61 -205 111 -205C174 -205 215 -148 239 -91L415 336Z' glyph-name='y' horiz-adv-x='527' unicode='y' vert-adv-y='527'/>
</font>
</defs>
<style type='text/css'>
<![CDATA[
text.f0 {font-family:cmr10;font-size:9.96264px}
text.f1 {font-family:cmr7;font-size:6.97385px}
]]>
</style>
<g id='page1'>
<path d='M-71.8008 57.082H13.2383V-27.957H-71.8008Z' fill='none' stroke='#000000' stroke-width='0.399994'/>
<text class='f0' transform='matrix(1 0 0 1 -5.9708 2.6567)' x='-29.2811' y='14.5621'>V</text>
<text class='f1' transform='matrix(1 0 0 1 -5.9708 2.6567)' x='-21.8091' y='16.0565'>1</text>
<path d='M-29.2813 -56.3047V-28.6172' fill='none' stroke='#000000' stroke-miterlimit='10.0375' stroke-width='0.399994'/>
<path d='M-27.6875 -29.8126C-28.2852 -29.711 -29.1797 -28.6172 -29.2813 -28.3165C-29.3789 -28.6172 -30.2773 -29.711 -30.875 -29.8126' fill='none' stroke='#000000' stroke-linecap='round' stroke-linejoin='round' stroke-miterlimit='10.0375' stroke-width='0.319985'/>
<text class='f0' transform='matrix(1 0 0 1 -30.7463 -76.324)' x='-29.2811' y='14.5621'>D<tspan x='-21.6707'>r</tspan>
<tspan x='-17.7687'>u</tspan>
<tspan x='-12.2338'>g</tspan>
<tspan x='-3.93163'>D</tspan>
<tspan x='3.67875'>e</tspan>
<tspan x='8.1066'>l</tspan>
<tspan x='10.874'>i</tspan>
<tspan x='13.6414'>v</tspan>
<tspan x='18.6228'>e</tspan>
<tspan x='23.0506'>r</tspan>
<tspan x='26.9527'>y</tspan>
</text>
<path d='M-29.2813 81.8437V57.2813' fill='none' stroke='#000000' stroke-miterlimit='10.0375' stroke-width='0.399994'/>
<path d='M-29.2813 85.4297C-29.082 84.3672 -28.4844 82.6407 -27.7852 81.4453H-30.7773C-30.0781 82.6407 -29.4805 84.3672 -29.2813 85.4297'/>
<text class='f0' transform='matrix(1 0 0 1 -17.2187 59.5053)' x='-29.2811' y='14.5621'>k</text>
<text class='f1' transform='matrix(1 0 0 1 -17.2187 59.5053)' x='-24.023' y='16.0565'>1<tspan x='-20.0518'>0</tspan>
</text>
</g>
</svg>
